i/admin/skin/entrine/list/visible_bottom-0.svg

<svg height="25" viewBox="0 0 24 25" width="24" xmlns="http://www.w3.org/2000/svg"><g fill="#000" fill-rule="nonzero"><path d="m19.604.562-3.346 3.137c-1.27-.428-2.686-.699-4.243-.699-7.569 0-12.015 6.551-12.015 6.551s1.928 2.951 5.146 5.138l-2.911 2.909 1.414 1.414 17.37-17.035zm-6.016 5.779c-3.288-1.453-6.681 1.908-5.265 5.206l-1.726 1.707c-1.814-1.16-3.225-2.65-4.06-3.66 1.493-1.648 4.817-4.594 9.478-4.594.927 0 1.796.119 2.61.315zm-2.883 7.431 5.09-4.993c1.017 3.111-2.003 6.067-5.09 4.993zm13.295-4.221s-4.252 7.449-11.985 7.449c-1.379 0-2.662-.291-3.851-.737l1.614-1.583c.715.193 1.458.32 2.237.32 4.791 0 8.104-3.527 9.504-5.364-.729-.822-1.956-1.99-3.587-2.952l1.489-1.46c2.982 1.9 4.579 4.327 4.579 4.327z"/><path d="m0 23h24v2h-24z"/></g></svg>

<svg width="24px" height="25px" viewBox="0 0 24 25" version="1.1" xmlns="http://www.w3.org/2000/svg" xmlns:xlink="http://www.w3.org/1999/xlink">
    <g id="Page-1" stroke="none" stroke-width="1" fill="none" fill-rule="evenodd">
        <g id="visible-0" fill="#000000" fill-rule="nonzero">
            <path d="M19.604,0.562 L16.258,3.699 C14.988,3.271 13.572,3 12.015,3 C4.446,3 -1.77635684e-15,9.551 -1.77635684e-15,9.551 C-1.77635684e-15,9.551 1.928,12.502 5.146,14.689 L2.235,17.598 L3.649,19.012 L21.019,1.977 L19.604,0.562 Z M13.588,6.341 C10.3,4.888 6.907,8.249 8.323,11.547 L6.597,13.254 C4.783,12.094 3.372,10.604 2.537,9.594 C4.03,7.946 7.354,5 12.015,5 C12.942,5 13.811,5.119 14.625,5.315 L13.588,6.341 Z M10.705,13.772 L15.795,8.779 C16.812,11.89 13.792,14.846 10.705,13.772 Z M24,9.551 C24,9.551 19.748,17 12.015,17 C10.636,17 9.353,16.709 8.164,16.263 L9.778,14.68 C10.493,14.873 11.236,15 12.015,15 C16.806,15 20.119,11.473 21.519,9.636 C20.79,8.814 19.563,7.646 17.932,6.684 L19.421,5.224 C22.403,7.124 24,9.551 24,9.551 Z" id="Shape"></path>
        </g>
        <rect id="Rectangle" fill="#000000" fill-rule="nonzero" x="0" y="23" width="24" height="2"></rect>
    </g>
</svg>
